X: 203
T: Hora Olteneasca
S: Mihai & Alexandru David, Gypsy Camp vol. 1
M: 2/4
L: 1/8
Q: 1/4=300
K: Eb
%%MIDI gchord fzzz
|:"Eb" cdec|{fgfg}f2e2 |cdec|{fgfg}f2e2|\
  cdec     |{fgfg}f2e2 |cdec|A4        :|
|:"Eb" cdec|{fgfg}f2e2 |cdec|{fgfg}f2e2|\
  cdec     |{fgfg}f2e2 |cdec|A4        :|
|:cdec     |{fgfg}f2e2 |cdec|A2c^d     |\
  {d}e2 .e2|{efef}e2 c2|cdec|A2c^d     |
  .e2 .c2  |.e2 c2     |cdec|A2c^d     |\
  .e2 .e2  |{efef}e2 c2|cdec|A4        :|



